public/img/events/planting.svg

<svg width="200" height="200" viewBox="0 0 200 200" fill="none" xmlns="http://www.w3.org/2000/svg">
<g clip-path="url(#clip0_501_29536)">
<path d="M94.5628 1.16139C93.0859 6.08735 91.1646 10.8476 88.7792 15.389C86.4462 19.8309 83.623 23.9945 81.7148 28.6552C77.6695 38.5337 79.813 49.4397 84.1328 58.8209C86.5769 64.1181 89.7072 69.0507 92.818 73.9634C93.9551 75.7534 96.7848 74.0893 95.6411 72.2927C90.2889 63.8595 84.7601 55.1347 83.1786 45.0441C82.4206 40.211 82.7473 35.2254 84.4465 30.6243C86.1194 26.0961 88.8969 22.0917 91.1711 17.8752C93.8832 12.8498 96.0724 7.53265 97.7128 2.04979C98.3271 -0.00545015 95.1771 -0.880588 94.5628 1.16139Z" fill="black"/>
<path d="M98.125 75.4153C94.0862 70.801 88.3288 68.9048 82.5256 67.8109C81.1009 67.5391 79.6698 67.3071 78.2386 67.0551C76.8989 66.8231 75.5461 66.6905 74.2391 66.2927C71.8015 65.5501 69.6775 64.0518 67.9327 62.1822C65.8806 59.9811 64.3776 57.2629 63.3777 54.4187C63.0836 53.5767 62.2602 53.0132 61.3648 53.2585C60.561 53.4839 59.9271 54.4518 60.2212 55.3005C62.1229 60.7236 65.6388 65.9479 70.8865 68.5004C73.5463 69.7932 76.3957 70.0849 79.2646 70.5822C82.1204 71.0728 84.9959 71.5899 87.7472 72.5247C90.8514 73.5789 93.6288 75.2695 95.8115 77.7623C97.2166 79.3601 99.5169 77.0065 98.125 75.4153Z" fill="black"/>
<path d="M59.7633 54.4651C59.4038 58.4297 59.2731 62.4209 59.9397 66.3656C60.6128 70.3634 62.2858 74.0363 64.8999 77.1059C69.7489 82.7943 76.5978 88.4495 84.5118 87.1103C89.1975 86.3147 93.1055 83.2451 96.7586 80.3744C97.4579 79.8241 97.3272 78.6043 96.7586 78.0275C96.0725 77.3313 95.151 77.4772 94.4452 78.0275C91.5697 80.2882 88.5309 82.6418 84.9627 83.6164C81.6886 84.5048 78.4145 83.7291 75.5129 82.065C72.5787 80.3877 70.0888 78.0208 67.8538 75.4949C65.5076 72.8496 63.9719 69.8595 63.2596 66.3656C62.4623 62.4607 62.6779 58.4032 63.0374 54.4585C63.1158 53.5635 62.227 52.801 61.4036 52.801C60.4495 52.8077 59.8482 53.5701 59.7633 54.4651Z" fill="black"/>
<path d="M94.648 102.863C89.4134 107.278 82.9894 110.712 76.0033 110.381C69.8341 110.089 64.7825 106.383 61.6718 101.119C59.94 98.1887 58.8224 94.96 58.1951 91.612C57.3978 92.2352 56.594 92.8584 55.7967 93.4816C58.1428 95.2915 60.8353 96.6307 63.7826 96.9954C66.73 97.3534 69.4159 96.3257 72.0757 95.1788C74.6113 94.0849 77.0947 93.223 79.8917 93.581C82.5254 93.9191 85.0675 95.139 87.1196 96.823C89.5376 98.8119 91.4001 101.351 92.9293 104.083C93.9684 105.939 96.7915 104.268 95.7525 102.412C92.8835 97.2738 88.6749 92.6595 82.9632 90.8893C80.0943 90.0009 76.9966 89.9346 74.1277 90.8429C71.4679 91.6849 68.9977 93.2893 66.2137 93.7003C62.9984 94.1711 59.9203 92.5335 57.4435 90.6241C56.9338 90.233 56.0842 90.3854 55.6268 90.7567C55.0844 91.1943 54.9144 91.8175 55.0386 92.5004C56.2411 98.9644 59.3845 105.389 64.5799 109.486C70.7099 114.326 78.931 114.763 86.0413 111.972C90.0669 110.394 93.6481 108.007 96.9549 105.216C97.6346 104.646 97.5366 103.466 96.9549 102.869C96.2883 102.186 95.3277 102.293 94.648 102.863Z" fill="black"/>
<path d="M93.2818 121.897C90.805 121.499 88.2693 121.38 85.8448 122.129C83.5836 122.825 81.597 124.178 79.924 125.848C76.6629 129.11 74.3822 134.096 69.788 135.667C67.9647 136.29 68.4221 138.717 70.2193 138.922C77.1139 139.711 84.7665 140.626 91.269 137.576C93.0465 136.741 94.6803 135.508 95.8828 133.93C96.4252 133.221 96.5624 132.273 95.8828 131.583C95.3207 131.013 94.1183 130.874 93.5693 131.583C91.0533 134.878 86.9296 135.939 82.9432 136.231C78.6954 136.542 74.441 136.085 70.2193 135.607C70.3631 136.695 70.5068 137.775 70.6506 138.863C75.4474 137.225 78.0157 132.962 81.1983 129.302C82.5642 127.738 84.1653 126.259 86.1127 125.523C88.1321 124.761 90.2952 124.748 92.4126 125.092C93.2818 125.232 94.1705 124.867 94.4254 123.932C94.6345 123.15 94.1575 122.043 93.2818 121.897Z" fill="black"/>
<path d="M95.9946 141.548C91.5442 141.229 86.9565 142.516 83.2838 145.095C81.4605 146.381 79.9508 147.919 78.5785 149.682C77.4217 151.161 76.1931 152.984 74.3502 153.607C72.8537 154.118 72.7426 156.339 74.3502 156.803C76.4349 157.4 78.585 157.864 80.7481 158.056C82.7479 158.235 84.7868 157.917 86.3683 156.584C87.7146 155.45 88.3485 153.687 89.7405 152.6C91.0606 151.572 92.6878 151.187 94.3281 151.333C95.2104 151.413 95.9619 150.511 95.9619 149.676C95.9619 148.714 95.2104 148.098 94.3281 148.018C92.4852 147.853 90.6162 148.284 88.9889 149.165C87.2963 150.087 86.1854 151.506 85.1005 153.064C84.1203 154.469 82.9374 154.854 81.2709 154.774C79.232 154.675 77.1799 154.164 75.2259 153.601C75.2259 154.668 75.2259 155.729 75.2259 156.796C79.3757 155.384 81.0814 150.929 84.3882 148.35C87.695 145.777 91.8579 144.551 95.9946 144.849C96.8768 144.916 97.6284 144.04 97.6284 143.192C97.6284 142.257 96.8768 141.607 95.9946 141.548Z" fill="black"/>
<path d="M94.9549 2.08952C96.4188 6.98895 98.327 11.7558 100.647 16.3038C102.869 20.653 105.653 24.7038 107.627 29.1856C111.691 38.4275 109.659 48.7899 105.522 57.6076C103.111 62.7523 100.059 67.5523 97.0265 72.3324C95.8829 74.1291 98.7126 75.7932 99.8497 74.0031C105.339 65.3512 111.018 56.3148 112.645 45.9656C113.449 40.8474 113.325 35.5436 111.665 30.6043C110.051 25.7911 107.267 21.548 104.823 17.1525C102.013 12.1005 99.7713 6.75691 98.1114 1.20113C97.4971 -0.827596 94.3471 0.0409075 94.9549 2.08952Z" fill="black"/>
<path d="M96.8633 77.8085C98.7258 75.5875 100.994 73.8505 103.608 72.6439C106.581 71.2715 109.679 71.3047 112.861 71.066C118.756 70.6218 124.063 67.8439 127.905 63.2826C129.964 60.8428 131.539 58.0649 132.552 55.0219C133.225 52.9998 130.075 52.1246 129.402 54.1401C127.774 59.013 124.291 63.2693 119.828 65.729C117.364 67.0881 114.737 67.6517 111.946 67.8108C110.286 67.9036 108.633 67.9632 106.986 68.2085C105.352 68.4472 103.817 68.9577 102.307 69.6207C99.327 70.9334 96.6411 72.9555 94.5368 75.4682C93.9682 76.1511 93.8768 77.1455 94.5368 77.8152C95.138 78.4052 96.2882 78.4914 96.8633 77.8085Z" fill="black"/>
<path d="M129.644 54.5116C130.271 61.4198 130.31 69.0308 125.625 74.6264C121.658 79.3601 115.724 84.9954 109.039 83.9612C104.928 83.3247 101.432 80.5932 98.2361 78.0805C97.5368 77.5303 96.6023 77.391 95.9226 78.0805C95.3606 78.6507 95.2234 79.8706 95.9226 80.4275C99.2229 83.0198 102.628 85.6783 106.712 86.8319C110.607 87.9324 114.587 87.2164 118.142 85.3534C121.514 83.5833 124.429 80.9181 126.971 78.0872C129.637 75.1104 131.572 71.7623 132.467 67.8176C133.454 63.4552 133.317 58.9469 132.911 54.5248C132.833 53.6364 132.219 52.8674 131.278 52.8674C130.454 52.8541 129.559 53.6165 129.644 54.5116Z" fill="black"/>
<path d="M95.7133 105.256C101.601 110.229 108.797 114.114 116.665 113.749C120.331 113.577 123.952 112.469 126.99 110.348C129.722 108.439 131.97 105.913 133.695 103.049C135.63 99.8397 136.937 96.2264 137.623 92.5403C137.747 91.8773 137.597 91.2209 137.035 90.7966C136.558 90.4386 135.741 90.2662 135.218 90.664C133.042 92.3414 130.474 93.7867 127.67 93.8066C124.84 93.8331 122.272 92.2817 119.691 91.2939C113.861 89.0596 107.705 90.7171 103.02 94.695C100.504 96.8298 98.5168 99.5745 96.9027 102.452C95.8636 104.308 98.6868 105.986 99.7258 104.123C102.392 99.3557 106.287 95.0132 111.764 93.7999C114.548 93.1834 117.122 93.7602 119.71 94.8408C122.324 95.9281 124.906 97.1745 127.801 97.1148C131.127 97.0419 134.257 95.5303 136.865 93.5215C136.068 92.8983 135.264 92.2751 134.467 91.6519C133.395 97.4198 130.755 103.161 126.141 106.874C120.887 111.104 113.829 111.216 107.751 108.903C104.189 107.544 100.935 105.356 98.0202 102.903C97.3405 102.333 96.3733 102.226 95.7067 102.903C95.1382 103.506 95.0336 104.686 95.7133 105.256Z" fill="black"/>
<path d="M95.7593 126.326C98.1773 125.557 100.752 125.185 103.242 125.822C105.66 126.445 107.588 127.923 109.215 129.806C112.496 133.605 114.973 138.12 119.933 139.89C120.076 138.803 120.22 137.722 120.364 136.635C116.175 137.046 111.947 137.424 107.738 137.059C103.967 136.734 99.6346 135.654 97.3408 132.551C96.8114 131.835 95.9292 131.47 95.1058 131.954C94.413 132.365 93.9883 133.499 94.5176 134.222C99.1314 140.46 107.738 140.812 114.77 140.414C116.639 140.308 118.502 140.129 120.364 139.95C122.187 139.771 122.593 137.338 120.795 136.695C117.208 135.408 115.005 131.861 112.757 128.977C111.431 127.274 110.006 125.689 108.215 124.476C106.438 123.269 104.392 122.56 102.275 122.295C99.7915 121.983 97.2624 122.374 94.8836 123.13C92.8904 123.766 93.7465 126.969 95.7593 126.326Z" fill="black"/>
<path d="M94.7204 144.909C98.8637 144.611 103.027 145.837 106.327 148.41C109.634 150.982 111.339 155.437 115.489 156.856C115.489 155.789 115.489 154.728 115.489 153.661C113.574 154.211 111.568 154.708 109.575 154.827C107.863 154.927 106.627 154.582 105.614 153.123C104.549 151.592 103.471 150.213 101.831 149.285C100.184 148.357 98.269 147.906 96.3869 148.072C95.5111 148.151 94.7531 148.774 94.7531 149.729C94.7531 150.564 95.5046 151.466 96.3869 151.386C98.0141 151.241 99.6217 151.625 100.942 152.633C102.36 153.714 102.994 155.49 104.347 156.637C105.889 157.943 107.876 158.281 109.836 158.122C112.038 157.943 114.241 157.466 116.358 156.856C117.966 156.392 117.855 154.171 116.358 153.661C114.515 153.031 113.287 151.214 112.13 149.736C110.758 147.979 109.255 146.434 107.425 145.148C103.758 142.569 99.1708 141.283 94.7139 141.601C93.8316 141.667 93.0801 142.317 93.0801 143.258C93.0866 144.1 93.8382 144.975 94.7204 144.909Z" fill="black"/>
<path d="M95.1965 75.5546C93.9287 80.7722 92.6609 86.1159 92.7393 91.5324C92.772 94.1512 93.138 96.7965 93.9418 99.2893C94.7064 101.669 95.752 103.937 95.7455 106.483C95.739 108.982 95.0201 111.402 94.3666 113.789C93.6608 116.354 93.0399 118.927 92.9158 121.605C92.6674 127.035 94.0202 132.392 93.7261 137.828C93.4386 143.252 92.1446 148.595 92.3407 154.045C92.5041 158.6 93.5301 163.101 95.2619 167.305C98.8235 175.956 105.006 183.183 112.6 188.467C120.579 194.023 129.918 197.397 139.361 199.313C140.55 199.552 141.74 199.771 142.936 199.97C143.805 200.116 144.694 199.738 144.948 198.809C145.164 198.021 144.681 196.913 143.805 196.767C134.551 195.223 125.389 192.458 117.292 187.572C109.718 182.997 103.339 176.547 99.379 168.511C97.5165 164.732 96.216 160.582 95.7782 156.379C95.2423 151.207 96.1703 146.136 96.7323 141.017C97.0198 138.372 97.1375 135.733 96.9545 133.075C96.7715 130.396 96.3859 127.738 96.2291 125.053C96.0788 122.461 96.216 119.935 96.8107 117.409C97.3793 115.009 98.1635 112.662 98.621 110.229C99.098 107.676 99.183 105.11 98.5033 102.591C97.8563 100.184 96.8107 97.9368 96.3663 95.4639C95.4514 90.4054 96.3598 85.1546 97.4708 80.2021C97.7518 78.9424 98.0524 77.6894 98.3595 76.4364C98.8497 74.3612 95.6998 73.4795 95.1965 75.5546Z" fill="black"/>
<path d="M114.855 57.9259C120.286 48.4519 126.167 39.2431 132.474 30.3459C132.99 29.6166 132.598 28.5028 131.885 28.0785C131.062 27.5879 130.167 27.9459 129.65 28.6752C123.344 37.5724 117.462 46.7812 112.032 56.2552C110.973 58.0983 113.796 59.769 114.855 57.9259Z" fill="black"/>
<path d="M79.8981 56.0099C73.4087 47.2453 67.3441 38.1624 61.7239 28.8077C60.6325 26.9912 57.8028 28.6553 58.9007 30.4785C64.5275 39.8398 70.5921 48.916 77.0749 57.6806C77.6042 58.3966 78.4865 58.7612 79.3099 58.2773C80.0026 57.8662 80.4274 56.7325 79.8981 56.0099Z" fill="black"/>
</g>
<defs>
<clipPath id="clip0_501_29536">
<rect width="200" height="200" fill="white"/>
</clipPath>
</defs>
</svg>

<svg xmlns="http://www.w3.org/2000/svg" width="200" height="200" fill="none"><g fill="#000" clip-path="url(#a)"><path d="M94.563 1.161a80 80 0 0 1-5.784 14.228c-2.333 4.442-5.156 8.606-7.064 13.266-4.046 9.879-1.902 20.785 2.418 30.166 2.444 5.297 5.574 10.23 8.685 15.142 1.137 1.79 3.967.126 2.823-1.67-5.352-8.434-10.88-17.158-12.462-27.249-.758-4.833-.432-9.819 1.267-14.42 1.673-4.528 4.45-8.532 6.725-12.749A84 84 0 0 0 97.713 2.05c.614-2.055-2.536-2.93-3.15-.889"/><path d="M98.125 75.415c-4.039-4.614-9.796-6.51-15.6-7.604-1.424-.272-2.855-.504-4.286-.756-1.34-.232-2.693-.365-4-.762-2.437-.743-4.562-2.241-6.306-4.11-2.052-2.202-3.555-4.92-4.555-7.764-.294-.842-1.118-1.406-2.013-1.16-.804.225-1.438 1.193-1.144 2.041 1.902 5.424 5.418 10.648 10.666 13.2 2.66 1.293 5.509 1.585 8.378 2.082 2.855.49 5.73 1.008 8.482 1.943 3.104 1.054 5.882 2.744 8.064 5.237 1.406 1.598 3.706-.755 2.314-2.347"/><path d="M59.763 54.465c-.36 3.965-.49 7.956.177 11.9.673 3.998 2.346 7.671 4.96 10.74 4.849 5.69 11.698 11.344 19.612 10.005 4.686-.795 8.594-3.865 12.247-6.736.699-.55.568-1.77 0-2.346-.686-.697-1.608-.55-2.314 0-2.875 2.26-5.914 4.614-9.482 5.588-3.274.889-6.548.113-9.45-1.551-2.934-1.677-5.424-4.044-7.66-6.57-2.345-2.645-3.881-5.636-4.593-9.13-.798-3.904-.582-7.962-.223-11.906.079-.896-.81-1.658-1.633-1.658-.955.007-1.556.77-1.64 1.664M94.648 102.863c-5.235 4.415-11.659 7.849-18.645 7.518-6.169-.292-11.22-3.998-14.331-9.262-1.732-2.93-2.85-6.159-3.477-9.507-.797.623-1.601 1.246-2.398 1.87 2.346 1.81 5.038 3.149 7.986 3.513 2.947.358 5.633-.67 8.293-1.816 2.535-1.094 5.019-1.956 7.816-1.598 2.633.338 5.176 1.558 7.228 3.242 2.418 1.989 4.28 4.528 5.81 7.26 1.038 1.856 3.861.185 2.822-1.671-2.868-5.138-7.077-9.753-12.789-11.523-2.869-.888-5.966-.954-8.835-.046-2.66.842-5.13 2.446-7.914 2.857-3.216.471-6.294-1.166-8.77-3.076-.51-.391-1.36-.239-1.817.133-.543.437-.713 1.06-.588 1.743 1.202 6.464 4.346 12.889 9.54 16.986 6.13 4.84 14.352 5.277 21.462 2.486 4.026-1.578 7.607-3.965 10.914-6.756.68-.57.582-1.75 0-2.347-.667-.683-1.627-.576-2.307-.006M93.282 121.897c-2.477-.398-5.013-.517-7.437.232-2.261.696-4.248 2.049-5.921 3.719-3.261 3.262-5.542 8.248-10.136 9.819-1.823.623-1.366 3.05.431 3.255 6.895.789 14.548 1.704 21.05-1.346 1.777-.835 3.411-2.068 4.614-3.646.542-.709.68-1.657 0-2.347-.562-.57-1.765-.709-2.314 0-2.516 3.295-6.64 4.356-10.626 4.648-4.248.311-8.502-.146-12.724-.624l.432 3.256c4.796-1.638 7.365-5.901 10.547-9.561 1.366-1.564 2.967-3.043 4.915-3.779 2.02-.762 4.182-.775 6.3-.431.869.14 1.758-.225 2.012-1.16.21-.782-.267-1.889-1.143-2.035M95.995 141.548c-4.45-.319-9.038.968-12.711 3.547-1.824 1.286-3.333 2.824-4.706 4.587-1.156 1.479-2.385 3.302-4.228 3.925-1.496.511-1.607 2.732 0 3.196 2.085.597 4.235 1.061 6.398 1.253 2 .179 4.039-.139 5.62-1.472 1.347-1.134 1.98-2.897 3.373-3.984 1.32-1.028 2.947-1.413 4.587-1.267.882.08 1.634-.822 1.634-1.657 0-.962-.752-1.578-1.634-1.658-1.843-.165-3.712.266-5.34 1.147-1.692.922-2.803 2.341-3.888 3.899-.98 1.405-2.163 1.79-3.83 1.71-2.038-.099-4.09-.61-6.044-1.173v3.195c4.15-1.412 5.855-5.867 9.162-8.446 3.307-2.573 7.47-3.799 11.607-3.501.882.067 1.633-.809 1.633-1.657 0-.935-.751-1.585-1.633-1.644M94.955 2.09a84.6 84.6 0 0 0 5.692 14.214c2.222 4.349 5.006 8.4 6.98 12.882 4.064 9.242 2.032 19.604-2.105 28.422-2.411 5.144-5.463 9.944-8.496 14.724-1.143 1.797 1.687 3.461 2.824 1.671 5.489-8.652 11.168-17.688 12.795-28.037.804-5.119.68-10.422-.98-15.362-1.614-4.813-4.398-9.056-6.842-13.451A79.8 79.8 0 0 1 98.111 1.2c-.614-2.029-3.764-1.16-3.156.889"/><path d="M96.863 77.809a19.3 19.3 0 0 1 6.745-5.165c2.973-1.373 6.071-1.34 9.253-1.578 5.895-.444 11.202-3.222 15.044-7.783a25 25 0 0 0 4.647-8.261c.673-2.022-2.477-2.897-3.15-.882-1.628 4.873-5.111 9.13-9.574 11.589-2.464 1.36-5.091 1.923-7.882 2.082-1.66.093-3.313.152-4.96.397-1.634.24-3.169.75-4.679 1.413a21.5 21.5 0 0 0-7.77 5.847c-.569.683-.66 1.677 0 2.347.601.59 1.751.676 2.326-.007"/><path d="M129.644 54.512c.627 6.908.666 14.519-4.019 20.114-3.967 4.734-9.901 10.37-16.586 9.335-4.111-.636-7.607-3.368-10.803-5.88-.7-.55-1.634-.69-2.313 0-.562.57-.7 1.79 0 2.346 3.3 2.593 6.705 5.251 10.789 6.405 3.895 1.1 7.875.384 11.43-1.479 3.372-1.77 6.287-4.435 8.829-7.266 2.666-2.977 4.601-6.325 5.496-10.27.987-4.362.85-8.87.444-13.292-.078-.889-.692-1.658-1.633-1.658-.824-.013-1.719.75-1.634 1.645M95.713 105.256c5.888 4.973 13.084 8.858 20.952 8.493 3.666-.172 7.287-1.28 10.325-3.401 2.732-1.909 4.98-4.435 6.705-7.299 1.935-3.21 3.242-6.823 3.928-10.509.124-.663-.026-1.32-.588-1.743-.477-.358-1.294-.53-1.817-.133-2.176 1.677-4.744 3.123-7.548 3.143-2.83.026-5.398-1.525-7.979-2.513-5.83-2.234-11.986-.577-16.671 3.401-2.516 2.135-4.503 4.88-6.117 7.757-1.04 1.856 1.784 3.534 2.823 1.671 2.666-4.767 6.561-9.11 12.038-10.323 2.784-.617 5.358-.04 7.946 1.04 2.614 1.088 5.196 2.334 8.091 2.275 3.326-.073 6.456-1.585 9.064-3.593-.797-.624-1.601-1.247-2.398-1.87-1.072 5.768-3.712 11.509-8.326 15.222-5.254 4.23-12.312 4.342-18.39 2.029-3.562-1.359-6.816-3.547-9.73-6-.68-.57-1.648-.677-2.314 0-.569.603-.673 1.783.006 2.353M95.76 126.326c2.417-.769 4.992-1.141 7.482-.504 2.418.623 4.346 2.101 5.973 3.984 3.281 3.799 5.758 8.314 10.718 10.084l.431-3.255c-4.189.411-8.417.789-12.626.424-3.771-.325-8.103-1.405-10.397-4.508-.53-.716-1.412-1.081-2.235-.597-.693.411-1.118 1.545-.588 2.268 4.613 6.238 13.22 6.59 20.252 6.192 1.869-.106 3.732-.285 5.594-.464 1.823-.179 2.229-2.612.431-3.255-3.587-1.287-5.79-4.834-8.038-7.718-1.326-1.703-2.751-3.288-4.542-4.501-1.777-1.207-3.823-1.916-5.94-2.181-2.484-.312-5.013.079-7.391.835-1.994.636-1.138 3.839.875 3.196M94.72 144.909c4.144-.298 8.307.928 11.607 3.501 3.307 2.572 5.012 7.027 9.162 8.446v-3.195c-1.915.55-3.921 1.047-5.914 1.166-1.712.1-2.948-.245-3.961-1.704-1.065-1.531-2.143-2.91-3.783-3.838-1.647-.928-3.562-1.379-5.444-1.213-.876.079-1.634.702-1.634 1.657 0 .835.752 1.737 1.634 1.657 1.627-.145 3.235.239 4.555 1.247 1.418 1.081 2.052 2.857 3.405 4.004 1.542 1.306 3.529 1.644 5.489 1.485 2.202-.179 4.405-.656 6.522-1.266 1.608-.464 1.497-2.685 0-3.195-1.843-.63-3.071-2.447-4.228-3.925-1.372-1.757-2.875-3.302-4.705-4.588-3.667-2.579-8.254-3.865-12.711-3.547-.882.066-1.634.716-1.634 1.657.007.842.758 1.717 1.64 1.651"/><path d="M95.197 75.555c-1.268 5.217-2.536 10.56-2.458 15.977.033 2.62.399 5.264 1.203 7.757.764 2.38 1.81 4.648 1.804 7.194-.007 2.499-.726 4.919-1.38 7.306-.705 2.565-1.326 5.138-1.45 7.816-.249 5.43 1.104 10.787.81 16.223-.287 5.424-1.581 10.767-1.385 16.217.163 4.555 1.19 9.056 2.92 13.26 3.563 8.651 9.745 15.878 17.339 21.162 7.979 5.556 17.318 8.93 26.761 10.846q1.782.358 3.575.657c.869.146 1.758-.232 2.012-1.161.216-.788-.267-1.896-1.143-2.042-9.254-1.544-18.416-4.309-26.513-9.195-7.574-4.575-13.953-11.025-17.913-19.061-1.863-3.779-3.163-7.929-3.6-12.132-.537-5.172.391-10.243.953-15.362.288-2.645.406-5.284.222-7.942-.182-2.679-.568-5.337-.725-8.022-.15-2.592-.013-5.118.582-7.644.568-2.4 1.352-4.747 1.81-7.18.477-2.553.562-5.119-.118-7.638-.647-2.407-1.692-4.654-2.137-7.127-.915-5.059-.006-10.31 1.105-15.262.28-1.26.581-2.513.888-3.766.49-2.075-2.66-2.957-3.162-.881M114.855 57.926a341 341 0 0 1 17.619-27.58c.516-.73.124-1.843-.589-2.268-.823-.49-1.718-.132-2.235.597a341 341 0 0 0-17.618 27.58c-1.059 1.843 1.764 3.514 2.823 1.67M79.898 56.01a340 340 0 0 1-18.174-27.202c-1.091-1.817-3.921-.153-2.823 1.67a342 342 0 0 0 18.174 27.203c.53.716 1.412 1.08 2.235.596.693-.41 1.117-1.544.588-2.267"/></g><defs><clipPath id="a"><path fill="#fff" d="M0 0h200v200H0z"/></clipPath></defs></svg>
